<?xml version="1.0" encoding="UTF-8"?>
<map version="1.10" tiledversion="1.10.2" orientation="orthogonal" renderorder="right-down" width="15" height="15" tilewidth="40" tileheight="20" infinite="0">
 <tileset firstgid="1" source="bricks.tsx"/>
 <layer id="1" name="Bricks" width="15" height="15"><data encoding="csv">
0,0,0,0,0,0,0,0,0,0,0,0,0,0,0,
0,0,0,0,0,0,0,0,0,0,0,0,0,0,0,
0,0,0,0,0,0,0,0,0,0,0,0,0,0,0,
0,0,0,0,0,11,0,0,0,11,0,0,0,0,0,
0,0,0,0,11,8,11,0,11,8,11,0,0,0,0,
0,0,0,0,0,11,0,0,0,11,0,0,0,0,0,
0,0,0,0,0,11,6,6,6,11,0,0,0,0,0,
0,0,0,0,5,5,5,0,5,5,5,0,0,0,0,
0,0,0,4,4,4,11,0,11,4,4,4,0,0,0,
0,0,3,3,3,11,0,0,0,11,3,3,3,0,0,
0,2,2,2,11,0,0,0,0,0,11,2,2,2,0,
0,0,0,2,2,11,11,0,11,11,2,2,0,0,0,
0,0,0,0,2,2,2,0,2,2,2,0,0,0,0,
0,0,0,0,7,0,0,0,0,0,7,0,0,0,0,
0,0,0,0,0,7,0,0,0,7,0,0,0,0,0
</data></layer>
</map>
