<?xml version="1.0" encoding="UTF-8"?>
<map version="1.10" tiledversion="1.10.2" orientation="orthogonal" renderorder="right-down" width="15" height="15" tilewidth="40" tileheight="20" infinite="0">
 <tileset firstgid="1" source="bricks.tsx"/>
 <layer id="1" name="Bricks" width="15" height="15"><data encoding="csv">
0,0,0,8,0,0,0,0,0,0,0,8,0,0,0,
0,0,8,8,0,0,0,0,0,0,0,8,8,0,0,
0,8,8,8,8,0,0,0,0,0,8,8,8,8,0,
0,8,8,8,8,0,0,0,0,0,8,8,8,8,0,
0,8,8,8,8,8,0,0,0,8,8,8,8,8,0,
0,8,8,8,8,8,0,0,0,8,8,8,8,8,0,
0,8,8,0,8,8,8,0,8,8,8,0,8,8,0,
0,8,0,0,8,8,8,8,8,8,8,0,0,8,0,
0,8,0,0,0,8,2,8,2,8,0,0,0,8,0,
0,0,0,0,0,8,8,8,8,8,0,0,0,0,0,
0,0,0,0,0,0,8,8,8,0,0,0,0,0,0,
0,0,0,0,0,0,8,0,8,0,0,0,0,0,0,
0,0,0,0,0,13,8,0,8,13,0,0,0,0,0,
0,0,0,0,0,0,13,0,13,0,0,0,0,0,0,
0,0,0,0,0,0,13,0,13,0,0,0,0,0,0
</data></layer>
</map>
