<?xml version="1.0" encoding="UTF-8"?>
<map version="1.10" tiledversion="1.12.2" orientation="orthogonal" renderorder="right-down" width="15" height="15" tilewidth="40" tileheight="20" infinite="0" nextlayerid="1" nextobjectid="1">
 <tileset firstgid="1" source="bricks.tsx"/>
 <layer id="1" name="Bricks" width="15" height="15">
  <data encoding="csv">
9,11,8,8,8,8,11,9,11,8,8,8,8,11,9,
11,9,11,8,8,8,11,9,11,8,8,8,11,9,11,
8,11,9,11,8,8,11,9,11,8,8,11,9,11,8,
8,8,11,9,11,8,11,9,11,8,11,9,11,8,8,
8,8,8,11,9,11,11,9,11,11,9,11,8,8,8,
8,8,8,8,11,9,11,9,11,9,11,8,8,8,8,
11,11,11,11,11,11,11,9,11,11,11,11,11,11,11,
9,9,9,9,9,9,9,9,9,9,9,9,9,9,9,
11,11,11,11,11,11,11,9,11,11,11,11,11,11,11,
8,8,8,8,11,9,11,9,11,9,11,8,8,8,8,
8,8,8,11,9,11,11,9,11,11,9,11,8,8,8,
8,8,11,9,11,8,11,9,11,8,11,9,11,8,8,
8,11,9,11,8,8,11,9,11,8,8,11,9,11,8,
11,9,11,8,8,8,11,9,11,8,8,8,11,9,11,
9,11,8,8,8,8,11,9,11,8,8,8,8,11,9
</data>
 </layer>
</map>
