<?xml version="1.0" encoding="UTF-8"?>
<map version="1.10" tiledversion="1.10.2" orientation="orthogonal" renderorder="right-down" width="15" height="21" tilewidth="40" tileheight="20" infinite="0">
 <tileset firstgid="1" source="bricks.tsx"/>
 <layer id="1" name="Bricks" width="15" height="21"><data encoding="csv">
0,0,0,1,4,0,0,0,0,0,4,1,0,0,0,
0,0,0,4,1,0,0,0,0,0,1,4,0,0,0,
0,0,0,0,1,4,0,0,0,4,1,0,0,0,0,
0,0,0,0,4,1,0,0,0,0,0,1,4,0,0,
0,0,0,0,0,1,0,0,0,1,0,0,0,0,0,
0,9,0,0,0,1,0,0,0,1,0,0,0,9,0,
0,9,9,0,9,1,4,4,4,1,9,0,9,9,0,
0,0,9,9,4,4,4,4,4,4,4,9,9,0,0,
0,0,0,9,4,4,4,14,4,4,4,9,0,0,0,
0,0,0,4,4,8,4,4,4,8,4,4,0,0,0,
0,0,4,4,4,8,4,14,4,8,4,4,4,0,0,
0,4,4,4,4,4,4,4,4,4,4,4,4,4,0,
0,4,13,0,4,4,4,14,4,4,4,0,13,4,0,
0,13,13,0,4,4,4,4,4,4,4,0,13,13,0,
0,13,0,0,0,4,0,4,0,4,0,0,0,13,0,
0,0,0,0,0,4,0,4,0,4,0,4,0,0,0,
0,0,0,0,4,0,4,0,4,0,4,0,0,0,0,
0,0,0,0,13,0,4,0,4,0,13,0,0,0,0,
0,0,0,0,13,13,4,13,4,13,13,0,0,0,0,
0,0,0,0,13,13,13,13,13,13,13,0,0,0,0,
0,0,0,0,0,0,14,0,14,0,0,0,0,0,0
</data></layer>
</map>
