<?xml version="1.0" encoding="UTF-8"?>
<map version="1.10" tiledversion="1.12.2" orientation="orthogonal" renderorder="right-down" width="15" height="15" tilewidth="40" tileheight="20" infinite="0" nextlayerid="1" nextobjectid="1">
 <tileset firstgid="1" source="bricks.tsx"/>
 <layer id="1" name="Bricks" width="15" height="15">
  <data encoding="csv">
0,0,0,0,0,0,0,0,0,0,0,0,0,0,0,
0,0,0,0,0,0,0,0,0,0,0,0,0,0,0,
3,3,3,3,3,3,14,0,14,3,3,3,3,3,3,
2,2,2,2,2,2,14,0,14,2,2,2,2,2,2,
14,14,14,14,14,14,14,0,14,14,14,14,14,14,14,
5,5,5,5,5,5,14,0,14,5,5,5,5,5,5,
4,4,4,4,4,4,14,0,14,4,4,4,4,4,4,
3,3,3,3,3,3,14,0,14,3,3,3,3,3,3,
13,13,13,13,13,13,14,0,14,13,13,13,13,13,13,
4,4,4,4,4,4,14,0,14,4,4,4,4,4,4,
5,5,5,5,5,5,14,0,14,5,5,5,5,5,5,
2,2,2,2,2,2,14,0,14,2,2,2,2,2,2,
0,0,0,0,0,0,0,0,0,0,0,0,0,0,0,
0,0,0,0,0,0,0,0,0,0,0,0,0,0,0,
0,0,0,0,0,0,0,0,0,0,0,0,0,0,0
</data>
 </layer>
</map>
