<?xml version="1.0" encoding="UTF-8"?>
<map version="1.10" tiledversion="1.10.2" orientation="orthogonal" renderorder="right-down" width="15" height="17" tilewidth="40" tileheight="20" infinite="0">
 <tileset firstgid="1" source="bricks.tsx"/>
 <layer id="1" name="Bricks" width="15" height="17"><data encoding="csv">
0,0,0,0,0,0,0,0,0,0,0,0,0,0,0,
0,0,0,0,0,0,0,0,0,0,0,0,0,0,0,
0,0,0,0,4,0,0,0,0,0,4,0,0,0,0,
0,0,0,0,4,0,0,0,0,0,4,0,0,0,0,
0,0,0,0,4,0,0,0,0,0,4,0,0,0,0,
0,0,0,0,4,1,1,1,1,1,4,0,0,0,0,
0,0,0,0,4,1,1,1,1,1,4,0,0,0,0,
0,0,0,6,4,1,1,1,1,1,4,6,0,0,0,
0,0,0,6,4,1,1,1,1,1,4,6,0,0,0,
0,0,4,6,11,6,6,6,6,6,11,6,4,0,0,
0,4,0,6,11,11,6,6,6,11,11,6,0,4,0,
4,0,0,6,11,11,11,6,11,11,11,6,0,0,4,
0,0,4,6,6,6,6,6,6,6,6,6,4,0,0,
0,0,4,4,4,4,4,4,4,4,4,4,4,0,0,
0,0,0,4,4,4,0,0,0,4,4,4,0,0,0,
0,0,0,0,4,4,0,0,0,4,4,0,0,0,0,
0,0,0,0,0,4,0,0,0,4,0,0,0,0,0
</data></layer>
</map>
