<?xml version="1.0" encoding="UTF-8"?>
<map version="1.10" tiledversion="1.10.2" orientation="orthogonal" renderorder="right-down" width="15" height="18" tilewidth="40" tileheight="20" infinite="0">
 <tileset firstgid="1" source="bricks.tsx"/>
 <layer id="1" name="Bricks" width="15" height="18"><data encoding="csv">
6,0,0,0,10,0,0,1,0,0,10,0,0,0,6,
1,0,0,0,5,0,0,4,0,0,5,0,0,0,1,
1,9,0,0,5,0,0,5,0,0,5,0,0,9,1,
6,4,0,0,5,8,0,3,0,8,5,0,0,4,6,
0,4,10,0,10,3,0,2,0,3,10,0,10,4,0,
0,9,5,0,0,3,0,0,0,3,0,0,5,9,0,
0,0,5,8,0,3,7,0,7,3,0,8,5,0,0,
6,0,10,3,0,8,2,0,2,8,0,3,10,0,6,
1,9,0,3,7,0,2,0,2,0,7,3,0,9,1,
6,4,10,8,2,0,2,0,2,0,2,8,10,4,6,
0,9,5,8,2,13,7,0,7,13,2,8,5,9,0,
0,0,10,3,7,11,13,13,13,11,7,3,10,0,0,
0,0,0,8,2,11,11,14,11,11,2,8,0,0,0,
1,4,10,0,7,11,11,13,11,11,7,0,10,4,1,
1,4,10,0,7,11,11,13,11,11,7,0,10,4,1,
14,13,5,3,2,11,13,0,13,11,2,3,5,13,14,
0,0,14,13,13,13,0,0,0,13,13,13,14,0,0,
0,0,0,0,14,0,0,0,0,0,14,0,0,0,0
</data></layer>
</map>
