<?xml version="1.0" encoding="UTF-8"?>
<map version="1.10" tiledversion="1.10.2" orientation="orthogonal" renderorder="right-down" width="15" height="13" tilewidth="40" tileheight="20" infinite="0">
 <tileset firstgid="1" source="bricks.tsx"/>
 <layer id="1" name="Bricks" width="15" height="13"><data encoding="csv">
0,0,14,13,13,13,13,14,13,13,13,13,14,0,0,
0,0,13,9,10,8,7,6,7,8,10,9,13,0,0,
0,0,13,4,5,3,2,1,2,3,5,4,13,0,0,
0,0,13,4,5,3,2,1,2,3,5,4,13,0,0,
0,0,13,4,5,3,2,1,2,3,5,4,13,0,0,
0,0,13,4,5,3,2,1,2,3,5,4,13,0,0,
0,0,13,4,5,3,2,14,2,3,5,4,13,0,0,
0,0,13,4,5,3,2,1,2,3,5,4,13,0,0,
0,0,13,4,5,3,2,1,2,3,5,4,13,0,0,
0,0,13,4,5,3,2,1,2,3,5,4,13,0,0,
0,0,13,4,5,3,2,1,2,3,5,4,13,0,0,
0,0,13,9,10,8,7,6,7,8,10,9,13,0,0,
0,0,14,13,13,13,13,14,13,13,13,13,14,0,0
</data></layer>
</map>
