<?xml version="1.0" encoding="UTF-8"?>
<map version="1.10" tiledversion="1.12.2" orientation="orthogonal" renderorder="right-down" width="15" height="15" tilewidth="40" tileheight="20" infinite="0" nextlayerid="1" nextobjectid="1">
 <tileset firstgid="1" source="bricks.tsx"/>
 <layer id="1" name="Bricks" width="15" height="15">
  <data encoding="csv">
0,0,4,4,4,4,4,4,4,4,4,4,4,0,0,
0,4,4,6,6,6,6,6,6,6,6,6,4,4,0,
4,4,6,6,1,1,1,1,1,1,1,6,6,4,4,
4,6,6,1,1,2,2,2,2,2,1,1,6,6,4,
4,6,1,1,2,2,3,3,3,2,2,1,1,6,4,
4,6,1,2,2,3,3,8,3,3,2,2,1,6,4,
4,6,1,2,3,3,8,8,8,3,3,2,1,6,4,
4,6,1,2,3,8,8,0,8,8,3,2,1,6,4,
4,6,1,2,3,8,14,0,14,8,3,2,1,6,4,
4,6,1,7,3,8,0,0,0,8,3,2,1,6,4,
4,6,1,7,3,8,0,0,0,8,3,2,1,6,4,
4,6,1,7,3,8,0,0,0,8,3,2,1,6,4,
4,6,1,7,3,8,0,0,0,8,3,2,1,6,4,
4,6,1,7,3,8,0,0,0,8,3,2,1,6,4,
13,13,13,13,13,13,13,13,13,13,13,13,13,13,13
</data>
 </layer>
</map>
